X: 1826
T: Sûy-i Kâğıthane`de Mecnûn Misal
C: Lavtacı Hristo
O: Turkey
F: http://compmusic.upf.edu/node/140
N: segah--sarki--aksak--suyi_kagithanede--lavtaci_hristo
N: makam= segah
N: form= sarki
N: usul= aksak = 9/8
M: 9/8
L: 1/16
K: C _1/4B _1/4e ^f 
Q: 1/4=120
%%MIDI tuningsystem comma53
fgf^e f4 fgfe f2g2 ab | c'2 baag gf^ef gff4z2  | 
w:  ARANAĞME  |   | 
fgf^e f4 fgfe f2g2 a_b | ag g=ffe eddc cBB4z2  | 
w:   |   | 
fgf^e f4 fgfe f2g2 ab | c'2 baag gf^ef gff4z2  | 
w:  ARANAĞME  |   | 
fgf^e f4 fgfe f2g2 a_b | ag g=ffe eddc cBB4z2  | 
w:   |   | 
B2^A4B2 B4 B2c2 d2 | c3B^A2 cBB8-B2  | \
w:  *  Sûy_ i  Kâ ğıt  |  hâ *  *  ne *  de   | 
z2Bc B2c2 d2_3/4ed gfed c2 | 
w:  Mec  | 
d2 cBf2 _3/4edd4f_2/4e dcB^A  | B2^A4B2 B4 B2c2 d2 | \
w:  nûn  *  *  *  mi *  sal   SAZ  |  *  Sûy_ i  Kâ ğıt  | 
c3B^A2 cBB8-B2  | 
w:  hâ *  *  ne *  de   | 
z2Bc B2c2 d2_3/4ed gfed c2 | d2 cBf2 _3/4edd4de dcBc  | 
w:  Mec  |  nûn  *  *  *  mi *  sal   SAZ  | 
d4 d3_3/4e f2g2 a4 ag | g3ff3_3/4ee3dgf edcB  | \
w:  *  Bek le dim  *  râ  |  hın  *  e *  fen *  dim   | 
z2g2 f2_2/4e2 d3c e2dc cB | 
w:  bî  *  *  *  *  *  *  *  me  | 
B6 d_3/4edc Bcd3cBc  | d4 d3_3/4e f2g2 a4 ag | \
w:  câl   SAZ  |  *  Bek le dim  *  râ  | 
g3ff3_3/4ee3dgf edcB  | 
w:  hın  *  e *  fen *  dim   | 
z2g2 f2_2/4e2 d3c e2dc cB | B6 bc'b^a gab4ac'  | 
w:  bî  *  *  *  *  *  *  *  me  |  câl   SAZ  | 
b4 g3b b4 c'2b2 ^a2 | ^a3gg3f^ef gff4z2  | \
w:  *  An la dım  teş  |  rî *  fi *  ne  *  *  *  yok   | 
^e2f4g2 f2e2 a2g2 gf | 
w:  ih *  *  *  *  *  *  ti  | 
f^e fgag f_1/4ede fgfe dcB^A  | B4 g3b b4 c'2b2 ^a2 | 
w:  mal   SAZ  |  *  An la dım  teş  | 
^a3gg3f^ef gff4z2  | ^e2f4g2 f2e2 a2g2 gf | \
w:  rî *  fi *  ne  *  *  *  yok   |  ih *  *  *  *  *  *  ti  | 
f2 fgfg feed def4ed  | 
w:  mal   SAZ  | 
d2d4a_b aggf g4 gf | f3ee3ddc cde6  | \
w:  *  Çağ la *  yan *  *  *  lar  |  la  *  be *  ra *  *  *  ber   | 
z2de d2e2 f2ed agfe ed | 
w:  çağ *  *  *  *  *  *  *  *  *  *  la  | 
d6 d_3/4edc Bcd6  | z2d4a_b aggf g2f2 e2 | \
w:  dım   SAZ  |  Tâ li  *  i  *  *  *  nâ  | 
d2 {e}def2 edd2 cBBc d2cB  | 
w:  sâ *  *  *  *  ze  *  küs *  *  tüm   | 
B2Bc B2c2 d2cB e2dc cB | B6 BcB^A GAB4z2  | 
w:  *  ağ *  *  *  *  *  *  *  *  *  la  |  dım   SAZ  | 
|


